src/assets/svg/investment-1.svg

<svg width="45" height="46" viewBox="0 0 45 46" fill="none" xmlns="http://www.w3.org/2000/svg">
<path fill-rule="evenodd" clip-rule="evenodd" d="M35.0331 12.512C35.0331 19.4223 29.4315 25.0239 22.5211 25.0239C15.6108 25.0239 10.0092 19.4223 10.0092 12.512C10.0092 5.60161 15.6108 0 22.5211 0C29.4315 0 35.0331 5.60161 35.0331 12.512ZM32.5307 12.512C32.5307 15.1667 31.4761 17.7127 29.599 19.5898C27.7218 21.467 25.1758 22.5215 22.5211 22.5215C19.8664 22.5215 17.3204 21.467 15.4433 19.5898C13.5661 17.7127 12.5115 15.1667 12.5115 12.512C12.5115 9.85727 13.5661 7.31129 15.4433 5.43413C17.3204 3.55697 19.8664 2.50239 22.5211 2.50239C25.1758 2.50239 27.7218 3.55697 29.599 5.43413C31.4761 7.31129 32.5307 9.85727 32.5307 12.512Z" fill="#00C700"/>
<path d="M41.2895 22.5213C41.2895 24.4394 39.8794 25.887 38.7871 26.719V29.6543C38.9489 29.5042 39.1316 29.372 39.3351 29.2577C41.0655 28.2893 43.2927 29.0075 44.3825 29.4729C44.584 29.5573 44.7527 29.705 44.8628 29.8937C44.973 30.0825 45.0187 30.3019 44.993 30.5189C44.8642 31.6563 44.405 33.7971 42.7597 34.5615C41.3959 35.1959 39.8281 35.072 38.7871 34.8693V37.1615C38.9489 37.0114 39.1316 36.8792 39.3351 36.7649C41.0655 35.7977 43.2927 36.5147 44.3825 36.9801C44.584 37.0645 44.7527 37.2122 44.8628 37.4009C44.973 37.5896 45.0187 37.8091 44.993 38.0261C44.8642 39.1634 44.405 41.3042 42.7597 42.0687C41.3959 42.7031 39.8281 42.5792 38.7871 42.3765V43.7916C38.7871 44.1235 38.6553 44.4417 38.4206 44.6764C38.186 44.911 37.8678 45.0428 37.5359 45.0428C37.2041 45.0428 36.8858 44.911 36.6512 44.6764C36.4165 44.4417 36.2847 44.1235 36.2847 43.7916V42.3778C35.2437 42.5792 33.676 42.7031 32.3122 42.0687C30.6668 41.3055 30.2064 39.1634 30.0788 38.0261C30.0531 37.8091 30.0989 37.5896 30.209 37.4009C30.3192 37.2122 30.4878 37.0645 30.6894 36.9801C31.7779 36.5147 34.005 35.7977 35.7367 36.7649C35.9402 36.88 36.1229 37.0122 36.2847 37.1615V34.8706C35.2437 35.0733 33.676 35.1959 32.3122 34.5628C30.6668 33.7996 30.2064 31.6575 30.0788 30.5202C30.0531 30.3032 30.0989 30.0837 30.209 29.895C30.3192 29.7063 30.4878 29.5585 30.6894 29.4742C31.7779 29.0087 34.005 28.2905 35.7367 29.259C35.9402 29.3732 36.1229 29.5055 36.2847 29.6556V26.7203C35.1924 25.887 33.7823 24.4406 33.7823 22.5225C33.7823 20.1415 35.9569 18.4849 36.9966 17.8305C37.1577 17.7276 37.3448 17.6729 37.5359 17.6729C37.727 17.6729 37.9142 17.7276 38.0752 17.8305C39.1137 18.4837 41.2895 20.1402 41.2895 22.5213ZM0 36.9576C0 32.91 4.61692 30.4514 10.0096 29.0625V36.2844H8.75838C8.42654 36.2844 8.10829 36.4163 7.87365 36.6509C7.63901 36.8856 7.50718 37.2038 7.50718 37.5356V45.0428H0V36.9576ZM22.5215 37.5356C18.1424 37.5356 15.0144 36.2844 15.0144 36.2844H12.512V28.502C14.1681 28.1843 15.8382 27.9446 17.5168 27.7838V30.0285C17.5168 30.6921 17.7804 31.3286 18.2497 31.7979C18.719 32.2672 19.3555 32.5308 20.0192 32.5308H25.0239C25.6896 32.5308 26.2952 32.2706 26.7431 31.8464C26.7848 31.9841 26.8286 32.1246 26.8745 32.2681C27.1081 32.9951 27.4185 33.6951 27.8003 34.3563C27.9013 34.5282 28.0193 34.7104 28.1544 34.9031C27.7224 35.1522 27.3443 35.4848 27.0423 35.8816C26.7402 36.2783 26.5203 36.7313 26.3953 37.2141C25.2867 37.398 23.9729 37.5356 22.5215 37.5356ZM22.5215 40.038C23.8583 40.0367 25.1931 39.9334 26.5141 39.729C26.5992 40.0956 26.7168 40.5448 26.8745 41.0265C27.0221 41.4719 27.221 41.9999 27.4901 42.5404H10.0096V38.7868H14.5777L14.7992 38.8607C15.2196 38.9958 15.8139 39.1722 16.5521 39.3461C18.5089 39.8043 20.5118 40.0364 22.5215 40.038Z" fill="#00C700"/>
</svg>

<svg xmlns="http://www.w3.org/2000/svg" width="45" height="46" fill="none"><path fill="#00C700" fill-rule="evenodd" d="M35.033 12.512c0 6.91-5.602 12.512-12.512 12.512S10.01 19.422 10.01 12.512 15.611 0 22.521 0s12.512 5.602 12.512 12.512m-2.502 0a10.01 10.01 0 1 1-20.02 0 10.01 10.01 0 0 1 20.02 0" clip-rule="evenodd"/><path fill="#00C700" d="M41.29 22.521c0 1.918-1.41 3.366-2.503 4.198v2.935q.243-.225.548-.396c1.73-.969 3.958-.25 5.047.215a1.006 1.006 0 0 1 .611 1.046c-.129 1.137-.588 3.278-2.233 4.043-1.364.634-2.932.51-3.973.307v2.292q.243-.225.548-.396c1.73-.967 3.958-.25 5.047.215a1.006 1.006 0 0 1 .611 1.046c-.129 1.137-.588 3.278-2.233 4.043-1.364.634-2.932.51-3.973.307v1.416a1.251 1.251 0 1 1-2.502 0v-1.414c-1.041.201-2.609.325-3.973-.31-1.645-.762-2.106-2.905-2.233-4.042a1.006 1.006 0 0 1 .61-1.046c1.089-.465 3.316-1.182 5.048-.215q.305.172.548.396v-2.29c-1.041.202-2.609.325-3.973-.308-1.645-.763-2.106-2.906-2.233-4.043a1.006 1.006 0 0 1 .61-1.046c1.089-.465 3.316-1.183 5.048-.215q.305.172.548.397V26.72c-1.093-.833-2.503-2.28-2.503-4.197 0-2.381 2.175-4.038 3.215-4.692a1 1 0 0 1 1.078 0c1.039.653 3.214 2.31 3.214 4.69M0 36.958c0-4.048 4.617-6.507 10.01-7.895v7.221H8.758a1.25 1.25 0 0 0-1.25 1.252v7.507H0zm22.522.578c-4.38 0-7.508-1.252-7.508-1.252h-2.502v-7.782a54 54 0 0 1 5.005-.718v2.245a2.5 2.5 0 0 0 2.502 2.502h5.005c.666 0 1.271-.26 1.72-.685q.061.207.13.422c.234.727.545 1.427.926 2.088q.152.258.354.547a3.75 3.75 0 0 0-1.759 2.311 24 24 0 0 1-3.873.322m0 2.502a26 26 0 0 0 3.992-.309c.085.367.203.816.36 1.297.148.446.347.974.616 1.514H10.01v-3.753h4.568l.221.074c.42.135 1.015.311 1.753.485 1.957.458 3.96.69 5.97.692"/></svg>
